X:1
T:Abendständchen
T:Abendständchen
T:Felix Mendelssohn Bartholdy Op. 75 nr. 2 
T:Eichendorff
C:Felix Mendelssohn Bartholdy
Z:Eichendorff
%%score [ 1 2 3 ( 4 5 ) ]
L:1/8
Q:1/4=52
M:3/4
K:Bb
V:1 treble-8 nm="Tenor 1" snm="T1."
V:2 treble-8 nm="T2"
V:3 bass nm="B1"
V:4 bass nm="B2"
V:5 bass 
V:1
!p!"^Andante sostenuto" d3/2 d/ | d2 c2 f3/2 f/ | f4 (ed) |!pp! (.c .d .e .g .f .c) | %4
w: 1.Schla- fe|Lieb- chen, weil's auf|Er- den *|nun so still und ein- sam|
w: 2.Schling- end|sich an Bäum und|Zwei- gen, *|in dein stil- les Käm- mer-|
w: 3.Und der|Tö- ne Klang ent-|füh- ret *|weit der buh- le- ri- sche|
 d4"^cresc." d3/2 c/ | B3!<(! c d e!<)! | f2 c2 e3/2 d/ |"^cresc." c3 d e f |!f!!>(! g6- | %9
w: wird! O- ben|geh'n die gold'- nen|Heer- den, für uns|al- le wacht der|Hirt,|
w: lein wie auf|gold'- nen Leit- ern|stei- gen die- se|Tö- ne aus und|ein,|
w: Wind, und durch|Schloß und Wand ihn|spü- ret träu- mend|wohl das sü- ße|Kind,|
 g2!>)! f3 f | (f2"^dim." =e2) _e2- | e!p! d c c{e} d3/2 c/ |!>(! (f4- f!>)!!pp!e) | %13
w: * für uns|al- le, für|* uns al- le wacht der|Hirt, _ _|
w: * die- se|Tö- ne, die-|* se Tö- ne aus und|ein, _ _|
w: * traü- mend|wohl, * träu-|* mend wohl das sü- ße|Kind, _ _|
 d B F B!>(! d3/2 c/!>)! | !fermata!B4 |] %15
w: für uns al- le wacht der|Hirt.|
w: die- se Tö- ne aus und|ein.|
w: traü- mend wohl das sü- ße|Kind.|
V:2
!p! F3/2 F/ | F2 F2 d3/2 B/ | B2 B2 z2 |!pp! (.B .B .B .B .c .A) | B4"^cresc." B3/2 A/ | %5
w: 1.Schla- fe|Lieb- chen, weil's auf|Er- den|nun so still und ein- sam|wird! O- ben|
w: 2.Schling- end|sich an Bäum und|Zwei- gen|in dein stil- les Käm- mer-|lein wie auf|
w: 3.Und der|Tö- ne Klang ent-|füh- ret|weit der buh- le- ri- sche|Wind, und durch|
 G3!<(! B B B!<)! | d2 c2 =B3/2 B/ |"^cresc." c3 =B c d |!f!!>(! d6- | d2!>)! d3 d | %10
w: geh'n die gold'- nen|Heer- den, für uns|al- le wacht der|Hirt,|* für uns|
w: gold'- nen Leit- ern|stei- gen die- se|Tö- ne aus und|ein,|* die- se|
w: Schloß und Wand ihn|spü- ret träu- mend|wohl das sü- ße|Kind,|* traü- mend|
 (d2"^dim." c4) |!p! B B B B F F |!>(! (F2 B4)!>)! |!pp! B F F F!>(! A3/2 F/!>)! | !fermata!F4 |] %15
w: al- le,|für uns al- le wacht der|Hirt, _|für uns al- le wacht der|Hirt.|
w: Tö- ne,|die- se Tö- ne aus und|ein, _|die- se Tö- ne aus und|ein.|
w: wohl, *|träu- mend wohl das sü- ße|Kind, _|traü- mend wohl das sü- ße|Kind.|
V:3
!p! B,3/2 B,/ | B,2 A,2 _A,3/2 A,/ | _A,2 G,2 z2 |!pp! (.E, .F, .G, .G, .=A, .F,) | %4
w: 1.Schla- fe|Lieb- chen, weil's auf|Er- den|nun so still und ein- sam|
w: 2.Schling- end|sich an Bäum und|Zwei- gen|in dein stil- les Käm- mer-|
w: 3.Und der|Tö- ne Klang ent-|füh- ret|weit der buh- le- ri- sche|
 F,4"^cresc." ^F,3/2 F,/ | G,3!<(! G, =F, B,!<)! | B,2 A,2 _A,3/2 A,/ |"^cresc." (_A,2 G,) G, C C | %8
w: wird! O- ben|geh'n die gold'- nen|Heer- den, für uns|al- * le wacht der|
w: lein wie auf|gold'- nen Leit- ern|stei- gen die- se|Tö- * ne aus und|
w: Wind, und durch|Schloß und Wand ihn|spü- ret träu- mend|wohl * das sü- ße|
!f!!>(! (=B,4 _B,2) | A,4!>)! _A,2 | (G,2"^dim." G,4) |!p! G, G, G, G, A, A, | %12
w: Hirt, *|für uns|al- le,|für uns al- le wacht der|
w: ein, *|die- se|Tö- ne,|die- se Tö- ne aus und|
w: Kind, *|träu- mend|wohl, *|träu- mend wohl das sü- ße|
!>(! (B,2 _A,2 G,2)!>)! |!pp! F, D, D, D,!>(! F,3/2 E,/!>)! | !fermata!D,4 |] %15
w: Hirt, _ _|für uns al- le wacht der|Hirt.|
w: ein, _ _|die- se Tö- ne aus und|ein.|
w: Kind, _ _|traü- mend wohl das sü- ße|Kind.|
V:4
!p! B,,3/2 B,,/ | B,,2 B,,2 B,,3/2 B,,/ | B,,2 B,,2 z2 |!pp! (.B,, .B,, .B,, .B,, .B,, .B,,) | %4
w: 1.Schla- fe|Lieb- chen, weil's auf|Er- den|nun so still und ein- sam|
w: 2.Schling- end|sich an Bäum und|Zwei- gen|in dein stil- les Käm- mer-|
w: 3.Und der|Tö- ne Klang ent-|füh- ret|weit der buh- le- ri- sche|
 B,,4"^cresc." D,3/2 D,/ | E,3!<(! E, =F, G,!<)! | F,2 F,2 F,3/2 F,/ |"^cresc." E,3 D, C, _A, | %8
w: wird! O- ben|geh'n die gold'- nen|Heer- den, für uns|al- le wacht der|
w: lein wie auf|gold'- nen Leit- ern|stei- gen die- se|Tö- ne aus und|
w: Wind, und durch|Schloß und Wand ihn|spü- ret träu- mend|wohl das sü- ße|
!f!!>(! G,6 | D,4!>)! C,2 | (=B,,2"^dim." C,4) |!p! E,4 E,2 |!>(! (D,4 E,2)!>)! | %13
w: Hirt,|für uns|al- le,|wacht der|Hirt, _|
w: ein,|die- se|Tö- ne,|aus- und|ein, _|
w: Kind,|träu- mend|wohl, *|sü- ße|Kind, _|
 z2!pp! F,,2!>(! F,,2!>)! | !fermata!B,,4 |] %15
w: wacht der|Hirt.|
w: aus und|ein.|
w: sü- ße|Kind.|
V:5
 x2 | x6 | x6 | x6 | x6 | x6 | x6 | x6 | x6 | x6 | x6 | E,,4 E,2 | x6 | x6 | x4 |] %15

